dist/assets/img/arrow-down-red.svg

<svg width="35" height="35" viewBox="0 0 35 35" fill="none" xmlns="http://www.w3.org/2000/svg">
<rect width="35" height="35" rx="17.5" transform="matrix(1 0 0 -1 0 35)" fill="white"/>
<mask id="path-2-inside-1" fill="white">
<path d="M8.19744 13L7 14.1806L17.4017 24.4363L18 25L18.5983 24.4363L29 14.1806L27.8034 13.0008L18 20.5L8.19744 13Z"/>
</mask>
<path d="M8.19744 13L7 14.1806L17.4017 24.4363L18 25L18.5983 24.4363L29 14.1806L27.8034 13.0008L18 20.5L8.19744 13Z" fill="url(#paint0_linear)"/>
<path d="M8.19744 13L20.3505 -2.88409L6.539 -13.4513L-5.8444 -1.24172L8.19744 13ZM7 14.1806L-7.04184 -0.0610838L-21.4863 14.1806L-7.04184 28.4224L7 14.1806ZM17.4017 24.4363L3.35985 38.6781L3.52183 38.8378L3.6874 38.9938L17.4017 24.4363ZM18 25L4.28571 39.5574L18 52.4774L31.7143 39.5574L18 25ZM18.5983 24.4363L32.3126 38.9938L32.4782 38.8378L32.6401 38.6781L18.5983 24.4363ZM29 14.1806L43.0418 28.4224L57.4863 14.1806L43.0418 -0.0610838L29 14.1806ZM27.8034 13.0008L41.8452 -1.2409L29.463 -13.4493L15.6519 -2.8844L27.8034 13.0008ZM18 20.5L5.84698 36.3841L17.9988 45.6815L30.1515 36.3852L18 20.5ZM-5.8444 -1.24172L-7.04184 -0.0610838L21.0418 28.4224L22.2393 27.2417L-5.8444 -1.24172ZM-7.04184 28.4224L3.35985 38.6781L31.4435 10.1946L21.0418 -0.0610847L-7.04184 28.4224ZM3.6874 38.9938L4.28571 39.5574L31.7143 10.4426L31.116 9.87894L3.6874 38.9938ZM31.7143 39.5574L32.3126 38.9938L4.88401 9.87894L4.28571 10.4426L31.7143 39.5574ZM32.6401 38.6781L43.0418 28.4224L14.9582 -0.0610847L4.55646 10.1946L32.6401 38.6781ZM43.0418 -0.0610838L41.8452 -1.2409L13.7615 27.2425L14.9582 28.4224L43.0418 -0.0610838ZM15.6519 -2.8844L5.84847 4.61478L30.1515 36.3852L39.9549 28.886L15.6519 -2.8844ZM30.153 4.61591L20.3505 -2.88409L-3.95557 28.8841L5.84698 36.3841L30.153 4.61591Z" fill="#D92C04" mask="url(#path-2-inside-1)"/>
<defs>
<linearGradient id="paint0_linear" x1="18" y1="9.5" x2="18" y2="28" gradientUnits="userSpaceOnUse">
<stop stop-color="#D92C04"/>
<stop offset="1" stop-color="#FF532C"/>
</linearGradient>
</defs>
</svg>

<svg width="35" height="35" fill="none" xmlns="http://www.w3.org/2000/svg"><rect width="35" height="35" rx="17.5" transform="matrix(1 0 0 -1 0 35)" fill="#fff"/><mask id="a" fill="#fff"><path d="M8.197 13L7 14.18l10.402 10.256L18 25l.598-.564L29 14.181 27.803 13 18 20.5 8.197 13z"/></mask><path d="M8.197 13L7 14.18l10.402 10.256L18 25l.598-.564L29 14.181 27.803 13 18 20.5 8.197 13z" fill="url(#paint0_linear)"/><path d="M8.197 13L20.351-2.884 6.539-13.451-5.844-1.241 8.197 13zM7 14.18L-7.042-.06l-14.444 14.24 14.444 14.241L7 14.181zm10.402 10.256L3.36 38.678l.162.16.165.156 13.715-14.558zM18 25L4.286 39.557 18 52.477l13.714-12.92L18 25zm.598-.564l13.715 14.558.165-.156.162-.16-14.042-14.242zM29 14.181l14.042 14.241 14.444-14.241L43.042-.061 29 14.18zM27.803 13L41.845-1.241 29.463-13.449 15.652-2.884 27.803 13zM18 20.5L5.847 36.384l12.152 9.297 12.152-9.296L18 20.5zM-5.844-1.242l-1.198 1.18 28.084 28.484 1.197-1.18L-5.844-1.242zm-1.198 29.664L3.36 38.678l28.084-28.483L21.041-.061-7.042 28.422zm10.73 10.572l.598.563 27.428-29.114-.598-.564L3.687 38.994zm28.026.563l.599-.563L4.884 9.879l-.598.564 27.428 29.114zm.926-.879l10.402-10.256L14.958-.06 4.556 10.195 32.64 38.678zM43.042-.062L41.845-1.24 13.761 27.242l1.197 1.18L43.042-.06zm-27.39-2.822L5.848 4.615l24.303 31.77 9.804-7.499-24.303-31.77zm14.501 7.5l-9.802-7.5-24.307 31.768 9.803 7.5L30.153 4.616z" fill="#D92C04" mask="url(#a)"/><defs><linearGradient id="paint0_linear" x1="18" y1="9.5" x2="18" y2="28" gradientUnits="userSpaceOnUse"><stop stop-color="#D92C04"/><stop offset="1" stop-color="#FF532C"/></linearGradient></defs></svg>
